X:1
T:Duntroon
T:Ellis Govan
T:Duntroon
T:Public Domain
C:Ellis Govan
Z:Public Domain
%%score 1 2
L:1/8
M:4/4
K:Ab
V:1 treble 
V:2 bass 
V:1
 [CE]2 [CE]2 [CE][DF][CE][B,D] | [A,C]2- [A,C]6 :| [A,C]2 [A,C]2 [A,C][A,C][B,D][CE] | %3
 [DF]2 [DF]2 [DF][EG][FA][_FB] | [Ec]2 [Ec]4 [=DA]2 | [Ec]2 [Ec]4 [DB]2 | [CA]8 |] %7
V:2
 [A,,A,]2 [A,,A,]2 [A,,A,][A,,A,][E,G,][E,G,] | [A,,E,]2- [A,,E,]6 :| %2
 [A,,E,]2 [A,,E,]2 [A,,E,][A,,E,][A,,E,][A,,A,] | [D,A,]2 [D,A,]2 [D,A,][D,A,][D,A,][D,A,] | %4
 [E,A,]2 [E,A,]4 [F,B,]2 | [E,A,]2 [E,G,]4 [E,G,]2 | [A,,E,]8 |] %7

